!!!COM:	Bach, Johann Sebastian
!!!OMV:	Warum betr&uuml;bst du dich, mein Herz
!!!OTL:	Warum betr&uuml;bst du dich, mein Herz
**kern	**fb	**kern	**kern	**kern	**kern
*part5	*part5	*part4	*part3	*part2	*part1
*staff5	*	*staff4	*staff3	*staff2	*staff1
*I"Continuo	*	*I"Voice	*I"Voice	*I"Voice	*I"Voice
*I'Cont.	*	*I'V	*I'V	*I'V	*I'V
*clefF4	*	*clefF4	*clefGv2	*clefG2	*clefG2
*Trd0c0	*	*	*	*	*
*k[b-e-]	*	*k[b-e-]	*k[b-e-]	*k[b-e-]	*k[b-e-]
*M4/4	*	*M4/4	*M4/4	*M4/4	*M4/4
4BBn	6	4BBn	4G	4d	4g
=2	=2	=2	=2	=2	=2
8CL	5	8CL	4c	4e-	8gL
8CJ	6	8CJ	.	.	8aJ
4GG	.	4GG	8B-L	8dL	4b-
.	.	.	8cJ	8enJ	.
4D	#	4D	4d	4f#X	4a
4B-	6	8B-L	4d	4g	4dd
.	.	8B-J	.	.	.
=3	=3	=3	=3	=3	=3
4F#X	6 5	4F#X	4d	4a	4cc
4G	.	4G	4d	4g	4b-
4D;	#	4D;	4d;	4f#X;	4a;
4GG	.	4GG	8dL	4g	8b-L
.	.	.	8cJ	.	8aJ
=4	=4	=4	=4	=4	=4
8GL	.	8GL	8B-L	4g	4g
8AJ	.	8AJ	8cJ	.	.
4B-	5	4B-	8dL	8fnL	4dd
.	6	.	8e-J	8gJ	.
4F	.	4F	4f	4a	4cc
4D	nr6	4D	4f	4bn	4dd
=5	=5	=5	=5	=5	=5
8E-L	6	8E-L	4g	4cc	8gL
8FJ	.	8FJ	.	.	8aJ
4G	n	4G	4d	4g	4bn
4C;	.	4C;	4e-;	4g;	4cc;
4G	.	4G	4d	4g	4b-X
=6	=6	=6	=6	=6	=6
8DL	#	8DL	4d	4f#X	4a
8CJ	.	8CJ	.	.	.
4BB-	6	4BB-	4d	4g	4dd
4AA	#6\	4AA	4F#X	4a	4cc
4GG	.	4GG	4G	4d	4b-
=7	=7	=7	=7	=7	=7
!!linebreak:original
2D;	.	2D;	2F#X;	2d;	2a;
4r	.	4r	4r	4r	4r
4GG	.	4GG	8B-L	4d	8gL
.	.	.	8cJ	.	8aJ
=8	=8	=8	=8	=8	=8
8GL	.	8GL	4d	4g	4b-
8FJ	.	8FnJ	.	.	.
4E-	-r7 3	4E-	4d-X	8gL	4b-
.	.	.	.	8fJ	.
8A-XL	.	8A-XL	8cL	4e-	4cc
8GJ	.	8GJ	8B-J	.	.
4F	-	4F	8A-XL	8fL	4cc
.	.	.	8GJ	8gJ	.
=9	=9	=9	=9	=9	=9
4B-	-r7	4B-	4F	4a-X	4dd
4BB-	.	4BB-	4f	8gL	4dd
.	.	.	.	8fJ	.
4E-;	.	4E-;	4e-;	4g;	4b-;
4BBn	6 5	4BBn	4f	4g	4dd
=10	=10	=10	=10	=10	=10
4C	.	4C	4e-	8gL	4cc
.	.	.	.	8f#XJ	.
4C#X	-r7 5	4C#X	4en	4g	4b-
4D	#	4D	8AL	4f#	4a
.	.	.	8B-J	.	.
4E-	5 3	4E-	4c	4g	8gL
.	6 4	.	.	.	8aJ
=11	=11	=11	=11	=11	=11
8DL	6 4	8DL	8dL	4g	4b-
8C#XJ	7 5	8C#XJ	8enJ	.	.
4D	#	4D	8AL	4f#X	4a
.	.	.	8cJ	.	.
4GG;	n	4GG;	4Bn;	4d;	4g;
=||	=||	=||	=||	=||	=||
*-	*-	*-	*-	*-	*-
!!!system-decoration: s1,s2,s3,s4,s5
